img/time-4.svg

<svg width="17" height="20" viewBox="0 0 17 20" fill="none" xmlns="http://www.w3.org/2000/svg">
<path d="M16.4634 7.50737C18.4634 10.5074 13.4634 19.5074 11.4634 19.5074C9.4634 19.5074 9.4634 18.5074 8.4634 18.5074C7.4634 18.5074 7.4634 19.5074 5.4634 19.5074C3.4634 19.5074 -1.5366 10.5074 0.463396 7.50737C2.4634 4.50737 5.4634 4.50737 7.4634 5.50737V2.50737C1.8434 5.57737 0.573396 1.28737 0.573396 1.28737C0.573396 1.28737 3.2334 -2.30263 7.4634 2.50737V0.507375H9.4634V5.50737C11.4634 4.50737 14.4634 4.50737 16.4634 7.50737Z" fill="#BC9B77"/>
</svg>

<svg width="17" height="20" fill="none" xmlns="http://www.w3.org/2000/svg"><path d="M16.463 7.507c2 3-3 12-5 12s-2-1-3-1-1 1-3 1-7-9-5-12 5-3 7-2v-3c-5.62 3.07-6.89-1.22-6.89-1.22s2.66-3.59 6.89 1.22v-2h2v5c2-1 5-1 7 2z" fill="#BC9B77"/></svg>
